svgs/collectcoin.svg

<svg width="192" height="192" viewBox="0 0 192 192" fill="none" xmlns="http://www.w3.org/2000/svg">
<path d="M170 63.5C170 86.4198 156.121 105 139 105C121.879 105 108 86.4198 108 63.5C108 40.5802 121.879 22 139 22C156.121 22 170 40.5802 170 63.5Z" stroke="black" stroke-width="12"/>
<path d="M50.3538 113.424C63.3786 110.948 71.9827 98.1945 69.5717 84.9385C67.1607 71.6824 54.6475 62.9435 41.6228 65.4195C28.598 67.8954 19.9939 80.6488 22.4049 93.9048C24.8159 107.161 37.3291 115.9 50.3538 113.424ZM50.3538 113.424L56.0092 144.518M50.3538 113.424C51.0473 113.276 71.0381 107.975 78.5314 105.987C80.3384 105.507 81.9149 104.382 82.9748 102.817L89.4529 94.774M50.3538 113.424L32.4489 126.009C31.0546 126.989 30.0124 128.406 29.4807 130.044L25.5912 142.025M34.2057 170L53.1456 160.722C56.3207 159.166 58.0735 155.634 57.4189 152.109L56.0092 144.518M56.0092 144.518L75.7806 140.759C78.1812 140.303 80.653 141.02 82.4567 142.696L94 153.422" stroke="black" stroke-width="12" stroke-linecap="round" stroke-linejoin="round"/>
<path d="M67 43C67.0016 45.2085 68.7915 46.9984 71 47C68.7915 47.0016 67.0016 48.7915 67 51C66.9984 48.7915 65.2085 47.0016 63 47C65.2085 46.9984 66.9984 45.2085 67 43Z" stroke="black" stroke-width="6" stroke-linejoin="round"/>
<path d="M87 20L87.0007 21.005C87.0038 25.4188 90.5812 28.9962 94.995 28.9993L96 29L94.995 29.0007C90.5812 29.0038 87.0038 32.5812 87.0007 36.995L87 38L86.9993 36.995C86.9962 32.5812 83.4188 29.0038 79.005 29.0007L78 29L79.005 28.9993C83.4188 28.9962 86.9962 25.4188 86.9993 21.005L87 20Z" stroke="black" stroke-width="8" stroke-linejoin="round"/>
</svg>

<svg xmlns="http://www.w3.org/2000/svg" width="192" height="192" fill="none" viewBox="0 0 192 192"><path stroke="#000" stroke-width="12" d="M170 63.5c0 22.92-13.879 41.5-31 41.5s-31-18.58-31-41.5S121.879 22 139 22s31 18.58 31 41.5Z"/><path stroke="#000" stroke-linecap="round" stroke-linejoin="round" stroke-width="12" d="M50.354 113.424c13.025-2.476 21.629-15.23 19.218-28.485-2.411-13.257-14.925-21.995-27.95-19.52S19.995 80.65 22.406 93.906s14.924 21.995 27.949 19.519m0 0 5.655 31.094m-5.655-31.094c.693-.148 20.684-5.449 28.177-7.437a7.8 7.8 0 0 0 4.444-3.17l6.478-8.043m-39.1 18.65L32.45 126.009a7.9 7.9 0 0 0-2.968 4.035l-3.89 11.981M34.206 170l18.94-9.278c3.175-1.556 4.928-5.088 4.273-8.613l-1.41-7.591m0 0 19.772-3.759a7.69 7.69 0 0 1 6.676 1.937L94 153.422"/><path stroke="#000" stroke-linejoin="round" stroke-width="6" d="M67 43a4.003 4.003 0 0 0 4 4 4.003 4.003 0 0 0-4 4 4.003 4.003 0 0 0-4-4 4.003 4.003 0 0 0 4-4Z"/><path stroke="#000" stroke-linejoin="round" stroke-width="8" d="M87 20v1.005a8 8 0 0 0 7.995 7.994L96 29h-1.005a8 8 0 0 0-7.994 7.995L87 38v-1.005a8 8 0 0 0-7.995-7.994L78 29h1.005a8 8 0 0 0 7.994-7.995z"/></svg>
